X:22
T:Hanter Dro
C:Stony
M:3/4
L:1/16
K:C
c2Gc e2f2 d4|ceGc e2f2 d4|\
c2Gc e2f2 d2dd|ceGc e2f2 d4||
|:e2ed e2g2 c2c2|d2fe c2ce d2dd|\
e2ed e2g2 c4|d2df ecdB c4:|
%%newpage
